X: 11
T: Song of Cutting the Sacred Pole
C: Teton Sioux band 1911-1914
N: Derived from sioux011.krn
O: South Dakota, U.S.A.
N: Teton Sioux Music by Frances Densmore, 1918
Z: transcribed to **kern format by Craig Sapp
L: 1/8
M: 2/4
Q: 1/4=58
K: Eb clef=bass
%%linebreak <none>
G2G3/ F/ | 
F< EE2- | 
E F F3/ E/ | 
F< E E3/ C/ | 
E< _CB,2 ||  
[M:3/4]B,2B,> G,B,2 ||  
[M:2/4]G, G, G, G, | 
G,4 | 
E< E E/ E3/ | 
G< E E (E/ C/) | 
E< _C B, B, ||  
[M:3/4]B,2B,> G,B,2 ||  
[M:2/4]G, G, G, G, | 
G,4 :|]  



